.local/share/icons/Gruvbox-Plus-Dark/apps/16/subsonic.svg

<svg width="16" height="16" version="1.1" xmlns="http://www.w3.org/2000/svg">
  <defs>
    <style id="current-color-scheme" type="text/css">.ColorScheme-Text { color:#ebdbb2; } .ColorScheme-Highlight { color:#458588; }</style>
  </defs>
  <path class="ColorScheme-Text" d="m0.571 12m8.572-4.571c0.631 0 1.143 0.512 1.143 1.142 0 0.631-0.512 1.143-1.143 1.143s-1.143-0.512-1.143-1.142 0.512-1.142 1.143-1.142zm1.714 1.142c0-0.63 0.512-1.142 1.143-1.142s1.143 0.512 1.143 1.142c0 0.631-0.512 1.143-1.143 1.143s-1.143-0.512-1.143-1.143zm-7.401-1.48c-0.011 0.019-0.019 0.036-0.027 0.052-0.4-0.791-2.858-1.143-2.858-1.143v2h-0.571v2.331h0.571v1.714c-0.015 0 2.458-0.351 2.858-1.143v-0.045c0.4 0.791 2.571 2.286 5.771 2.286s6.8-1.73 6.8-4.352c-4e-3 -1.863-1.568-3.453-4-4.22v-0.923c0-0.438-0.357-0.791-0.8-0.791h-4c-0.443 0-0.914 0.353-0.914 0.791v0.924c-0.681 0.215-1.255 0.608-1.715 1.046v-2.225c0-0.296-0.24-0.536-0.535-0.536h-0.072c-0.295 0-0.535 0.24-0.535 0.536v3.5c0 0.068 0.012 0.133 0.027 0.198zm1.687 1.48c0-0.63 0.512-1.142 1.143-1.142 0.63 0 1.143 0.512 1.143 1.142 0 0.631-0.513 1.143-1.143 1.143-0.631 0-1.143-0.512-1.143-1.143z" fill="currentColor"/>
</svg>

<svg xmlns="http://www.w3.org/2000/svg" style="isolation:isolate" width="16" height="16" viewBox="0 0 16 16">
 <defs>
  <style id="current-color-scheme" type="text/css">
   .ColorScheme-Text { color:#ebdbb2; } .ColorScheme-Highlight { color:#458588; }
  </style>
  <linearGradient id="arrongin" x1="0%" x2="0%" y1="0%" y2="100%">
   <stop offset="0%" style="stop-color:#d79921; stop-opacity:1"/>
   <stop offset="100%" style="stop-color:#b57614; stop-opacity:1"/>
  </linearGradient>
  <linearGradient id="aurora" x1="0%" x2="0%" y1="0%" y2="100%">
   <stop offset="0%" style="stop-color:#83a598; stop-opacity:1"/>
   <stop offset="100%" style="stop-color:#b16286; stop-opacity:1"/>
  </linearGradient>
  <linearGradient id="fitdance" x1="0%" x2="0%" y1="0%" y2="100%">
   <stop offset="0%" style="stop-color:#8ec07c; stop-opacity:1"/>
   <stop offset="100%" style="stop-color:#458588; stop-opacity:1"/>
  </linearGradient>
  <linearGradient id="oomox" x1="0%" x2="0%" y1="0%" y2="100%">
   <stop offset="0%" style="stop-color:#458588; stop-opacity:1"/>
   <stop offset="100%" style="stop-color:#928374; stop-opacity:1"/>
  </linearGradient>
  <linearGradient id="rainblue" x1="0%" x2="0%" y1="0%" y2="100%">
   <stop offset="0%" style="stop-color:#b8bb26; stop-opacity:1"/>
   <stop offset="100%" style="stop-color:#076678; stop-opacity:1"/>
  </linearGradient>
  <linearGradient id="sunrise" x1="0%" x2="0%" y1="0%" y2="100%">
   <stop offset="0%" style="stop-color: #fe8019; stop-opacity:1"/>
   <stop offset="100%" style="stop-color: #fabd2f; stop-opacity:1"/>
  </linearGradient>
  <linearGradient id="telinkrin" x1="0%" x2="0%" y1="0%" y2="100%">
   <stop offset="0%" style="stop-color: #83a598; stop-opacity:1"/>
   <stop offset="100%" style="stop-color: #83a598; stop-opacity:1"/>
  </linearGradient>
  <linearGradient id="60spsycho" x1="0%" x2="0%" y1="0%" y2="100%">
   <stop offset="0%" style="stop-color: #fb4934; stop-opacity:1"/>
   <stop offset="25%" style="stop-color: #fabd2f; stop-opacity:1"/>
   <stop offset="50%" style="stop-color: #fe8019; stop-opacity:1"/>
   <stop offset="100%" style="stop-color: #689d6a; stop-opacity:1"/>
  </linearGradient>
  <linearGradient id="90ssummer" x1="0%" x2="0%" y1="0%" y2="100%">
   <stop offset="0%" style="stop-color: #b16286; stop-opacity:1"/>
   <stop offset="20%" style="stop-color: #8ec07c; stop-opacity:1"/>
   <stop offset="50%" style="stop-color: #fabd2f; stop-opacity:1"/>
   <stop offset="100%" style="stop-color: #458588; stop-opacity:1"/>
  </linearGradient>
  <linearGradient id="cyberneon" x1="0%" x2="0%" y1="0%" y2="100%">
    <stop offset="0" style="stop-color:#83a598; stop-opacity:1"/>
    <stop offset="1" style="stop-color:#b16286; stop-opacity:1"/>
  </linearGradient>
 </defs>
 <path style="fill:currentColor" class="ColorScheme-Text" fill-rule="evenodd" d="M 0.571 12 L 0.571 12 L 0.571 12 L 0.571 12 L 0.571 12 L 0.571 12 L 0.571 12 Z M 8 8.571 C 8 7.941 8.512 7.429 9.143 7.429 C 9.774 7.429 10.286 7.941 10.286 8.571 C 10.286 9.202 9.774 9.714 9.143 9.714 C 8.512 9.714 8 9.202 8 8.571 L 8 8.571 L 8 8.571 L 8 8.571 L 8 8.571 L 8 8.571 Z M 10.857 8.571 C 10.857 7.941 11.369 7.429 12 7.429 C 12.631 7.429 13.143 7.941 13.143 8.571 C 13.143 9.202 12.631 9.714 12 9.714 C 11.369 9.714 10.857 9.202 10.857 8.571 L 10.857 8.571 L 10.857 8.571 L 10.857 8.571 Z M 3.456 7.091 C 3.445 7.11 3.437 7.127 3.429 7.143 C 3.029 6.352 0.571 6 0.571 6 L 0.571 6.045 L 0.571 6.045 L 0.571 6.045 L 0.571 8 L 0 8 L 0 8.045 L 0 10.286 L 0 10.331 L 0.571 10.331 L 0.571 12 L 0.571 12 L 0.571 12.045 C 0.556 12.045 3.029 11.694 3.429 10.902 L 3.429 10.857 L 3.429 10.857 C 3.829 11.648 6 13.143 9.2 13.143 C 12.4 13.143 16 11.413 16 8.791 C 15.996 6.928 14.432 5.338 12 4.571 L 12 3.648 C 12 3.21 11.643 2.857 11.2 2.857 L 7.2 2.857 C 6.757 2.857 6.286 3.21 6.286 3.648 L 6.286 4.572 C 5.605 4.787 5.031 5.18 4.571 5.618 L 4.571 3.393 C 4.571 3.097 4.331 2.857 4.036 2.857 L 3.964 2.857 C 3.669 2.857 3.429 3.097 3.429 3.393 L 3.429 6.893 C 3.429 6.961 3.441 7.026 3.456 7.091 L 3.456 7.091 L 3.456 7.091 L 3.456 7.091 L 3.456 7.091 L 3.456 7.091 L 3.456 7.091 Z M 5.143 8.571 C 5.143 7.941 5.655 7.429 6.286 7.429 C 6.916 7.429 7.429 7.941 7.429 8.571 C 7.429 9.202 6.916 9.714 6.286 9.714 C 5.655 9.714 5.143 9.202 5.143 8.571 Z"/>
</svg>
